assets/img/braze_icons/snowflake-02.svg

<svg fill="none" height="24" viewBox="0 0 24 24" width="24" xmlns="http://www.w3.org/2000/svg"><path d="m12 1c.5523 0 1 .44772 1 1v3.58579l3.2929-3.2929c.3905-.39052 1.0237-.39052 1.4142 0 .3905.39053.3905 1.02369 0 1.41422l-4.7071 4.7071v2.58579h2.5858l4.7071-4.70711c.3905-.39052 1.0237-.39052 1.4142 0 .3905.39053.3905 1.02369 0 1.41422l-3.2929 3.29289h3.5858c.5523 0 1 .4477 1 1s-.4477 1-1 1h-3.5858l3.2929 3.2929c.3905.3905.3905 1.0237 0 1.4142s-1.0237.3905-1.4142 0l-4.7071-4.7071h-2.5858v2.5858l4.7071 4.7071c.3905.3905.3905 1.0237 0 1.4142s-1.0237.3905-1.4142 0l-3.2929-3.2929v3.5858c0 .5523-.4477 1-1 1s-1-.4477-1-1v-3.5858l-3.29289 3.2929c-.39053.3905-1.02369.3905-1.41422 0-.39052-.3905-.39052-1.0237 0-1.4142l4.70711-4.7071v-2.5858h-2.58579l-4.7071 4.7071c-.39053.3905-1.02369.3905-1.41422 0-.39052-.3905-.39052-1.0237 0-1.4142l3.2929-3.2929h-3.58579c-.55228 0-1-.4477-1-1s.44772-1 1-1h3.58579l-3.2929-3.29289c-.39052-.39053-.39052-1.02369 0-1.41422.39053-.39052 1.02369-.39052 1.41422 0l4.7071 4.70711h2.58579v-2.58579l-4.70711-4.7071c-.39052-.39053-.39052-1.02369 0-1.41422.39053-.39052 1.02369-.39052 1.41422 0l3.29289 3.2929v-3.58579c0-.55228.4477-1 1-1z" fill="#801ed7"/></svg>

<svg width="24" height="24" viewBox="0 0 24 24" fill="none" xmlns="http://www.w3.org/2000/svg">
<path d="M12 1C12.5523 1 13 1.44772 13 2V5.58579L16.2929 2.29289C16.6834 1.90237 17.3166 1.90237 17.7071 2.29289C18.0976 2.68342 18.0976 3.31658 17.7071 3.70711L13 8.41421V11H15.5858L20.2929 6.29289C20.6834 5.90237 21.3166 5.90237 21.7071 6.29289C22.0976 6.68342 22.0976 7.31658 21.7071 7.70711L18.4142 11H22C22.5523 11 23 11.4477 23 12C23 12.5523 22.5523 13 22 13H18.4142L21.7071 16.2929C22.0976 16.6834 22.0976 17.3166 21.7071 17.7071C21.3166 18.0976 20.6834 18.0976 20.2929 17.7071L15.5858 13H13V15.5858L17.7071 20.2929C18.0976 20.6834 18.0976 21.3166 17.7071 21.7071C17.3166 22.0976 16.6834 22.0976 16.2929 21.7071L13 18.4142V22C13 22.5523 12.5523 23 12 23C11.4477 23 11 22.5523 11 22V18.4142L7.70711 21.7071C7.31658 22.0976 6.68342 22.0976 6.29289 21.7071C5.90237 21.3166 5.90237 20.6834 6.29289 20.2929L11 15.5858V13H8.41421L3.70711 17.7071C3.31658 18.0976 2.68342 18.0976 2.29289 17.7071C1.90237 17.3166 1.90237 16.6834 2.29289 16.2929L5.58579 13H2C1.44772 13 1 12.5523 1 12C1 11.4477 1.44772 11 2 11H5.58579L2.29289 7.70711C1.90237 7.31658 1.90237 6.68342 2.29289 6.29289C2.68342 5.90237 3.31658 5.90237 3.70711 6.29289L8.41421 11H11V8.41421L6.29289 3.70711C5.90237 3.31658 5.90237 2.68342 6.29289 2.29289C6.68342 1.90237 7.31658 1.90237 7.70711 2.29289L11 5.58579V2C11 1.44772 11.4477 1 12 1Z" fill="#801ED7"/>
</svg>
